UI/POI/SVG/night-club_solid_24px.svg

<svg width="24" height="24" viewBox="0 0 24 24" fill="none" xmlns="http://www.w3.org/2000/svg">
<path fill-rule="evenodd" clip-rule="evenodd" d="M12 2.00003C10.6028 2.00143 9.2215 2.29558 7.94501 2.86351C6.66852 3.43145 5.5252 4.26056 4.58876 5.29741C3.65232 6.33425 2.94353 7.55582 2.5081 8.88336C2.07266 10.2109 1.92023 11.615 2.06064 13.005C2.20105 14.3951 2.63118 15.7403 3.3233 16.9539C4.01543 18.1676 4.95419 19.2227 6.07906 20.0513C7.20393 20.88 8.48996 21.4637 9.85424 21.7649C11.2185 22.0661 12.6308 22.0781 14 21.8L12.61 20.41L11.17 19L12.59 17.59L15.59 14.59L17 13.17L17.71 13.88L18 13.59V4.00003C16.2714 2.69724 14.1645 1.99494 12 2.00003ZM12 14C11.6044 14 11.2177 13.8827 10.8888 13.663C10.5599 13.4432 10.3036 13.1308 10.1522 12.7654C10.0008 12.3999 9.96122 11.9978 10.0384 11.6098C10.1156 11.2219 10.306 10.8655 10.5857 10.5858C10.8655 10.3061 11.2218 10.1156 11.6098 10.0385C11.9977 9.96129 12.3999 10.0009 12.7653 10.1523C13.1308 10.3036 13.4431 10.56 13.6629 10.8889C13.8827 11.2178 14 11.6045 14 12C14 12.5305 13.7892 13.0392 13.4142 13.4142C13.0391 13.7893 12.5304 14 12 14ZM22 2.00003V14C21.9993 14.7954 21.6827 15.558 21.12 16.12L19.12 18.12L20 19L17 22L14 19L17 16L17.71 16.71L19.71 14.71C19.8927 14.5184 19.9963 14.2648 20 14V2.00003H22Z" fill="#0F1621"/>
</svg>

<svg xmlns="http://www.w3.org/2000/svg" width="24" height="24" viewBox="0 0 24 24"><rect width="24" height="24" style="fill:none"/><path d="M12,2a10,10,0,1,0,2,19.8l-1.39-1.39L11.17,19l1.42-1.41,3-3L17,13.17l.71.71.29-.29V4A9.93,9.93,0,0,0,12,2Zm0,12a2,2,0,1,1,2-2A2,2,0,0,1,12,14ZM22,2V14a3,3,0,0,1-.88,2.12l-2,2L20,19l-3,3-3-3,3-3,.71.71,2-2A1.05,1.05,0,0,0,20,14V2Z" style="fill-rule:evenodd"/></svg>
